X:810
T:Wiltshire Six Hand Reel
C:Traditional English
S:Colin Hume's website,  colinhume.com  - chords can also be printed below the stave.
Q:1/2=112
M:4/4
L:1/4
K:D
P:A
|: d/e/ | "D"fA de | "/"fA de | "D"f2 "B7/D#"g3/f/ | "Em"fe ec/d/ |\
"A"eA cd | "/"eA cd | "A7"e2 f3/e/ | "D"ed d :|
P:B
|: f/g/ | "D"a d d3/d/ | "G"cB B2 | "A7"gc c3/c/ | "D"BA A2 |\
"Bm"ad d3/d/ | "Em"cB B2 | "A7"Be Bc | "D"d2- d :|
